svg/airsonic-light.svg

<svg xmlns="http://www.w3.org/2000/svg" xml:space="preserve" viewBox="0 0 512 512"><path d="M13.3 233.6c7.3 0 13.3 6.3 13.3 14v81.2c0 7.7-6 14-13.3 14S0 336.5 0 328.8v-81.2c0-7.7 6-14 13.3-14m44.1-43.7c7.3 0 13.3 5.9 13.3 13.2V373c0 7.3-6 13.2-13.3 13.2s-13.3-5.9-13.3-13.2V203.1c.1-7.2 6-13.2 13.3-13.2m44.2-17.3c7.3 0 13.3 6.3 13.3 14v202c0 7.7-6 14-13.3 14s-13.3-6.3-13.3-14v-202c-.1-7.7 5.9-14 13.3-14m44.1-44.3c7.3 0 13.3 6.3 13.3 14.2v246c0 7.8-6 14.2-13.3 14.2s-13.3-6.3-13.3-14.2v-246c0-7.8 5.9-14.2 13.3-14.2m44.1-17.3c7.3 0 13.3 6.3 13.3 14v263.7c0 7.7-6 14-13.3 14s-13.3-6.3-13.3-14V125c0-7.8 6-14 13.3-14m44.2-1.7c7.3 0 13.3 6.3 13.3 14v265.2c0 7.7-6 14-13.3 14s-13.3-6.3-13.3-14V123.4c-.1-7.7 5.8-14.1 13.3-14.1m44 18.1c7.3 0 13.3 6.3 13.3 14v247.3c0 7.7-6 14-13.3 14s-13.3-6.3-13.3-14V141.4c0-7.8 6-14 13.3-14m44.2 44.2c7.3 0 13.3 6.3 13.3 14v202.9c0 7.7-6 14-13.3 14s-13.3-6.3-13.3-14V185.6c0-7.7 6-14 13.3-14m44.1 2.2c7.3 0 13.3 6.3 13.3 14v200.7c0 7.7-6 14-13.3 14s-13.3-6.3-13.3-14V187.8c-.1-7.7 5.9-14 13.3-14m44.1 22.3c7.3 0 13.3 6.3 13.3 14v178.5c0 7.7-6 14-13.3 14s-13.3-6.3-13.3-14V210.1c0-7.7 6-14 13.3-14m44.1 32.9c7.3 0 13.3 6.3 13.3 14v144.3c0 7.7-6 14-13.3 14s-13.3-6.3-13.3-14V242.9c.1-7.7 6-13.9 13.3-13.9m44.2 33.7c7.3 0 13.3 6.3 13.3 14v76.5c0 7.7-6 14-13.3 14s-13.3-6.3-13.3-14v-76.5c-.1-7.7 5.9-14 13.3-14" style="fill:#fff"/></svg>

<?xml version="1.0" encoding="utf-8"?>
<!-- Generator: Adobe Illustrator 28.2.0, SVG Export Plug-In . SVG Version: 6.00 Build 0)  -->
<svg version="1.1"
	 id="svg8" xmlns:rdf="http://www.w3.org/1999/02/22-rdf-syntax-ns#" xmlns:svg="http://www.w3.org/2000/svg" xmlns:sodipodi="http://sodipodi.sourceforge.net/DTD/sodipodi-0.dtd" xmlns:dc="http://purl.org/dc/elements/1.1/" xmlns:inkscape="http://www.inkscape.org/namespaces/inkscape" xmlns:cc="http://creativecommons.org/ns#"
	 xmlns="http://www.w3.org/2000/svg" xmlns:xlink="http://www.w3.org/1999/xlink" x="0px" y="0px" viewBox="0 0 512 512"
	 style="enable-background:new 0 0 512 512;" xml:space="preserve">
<style type="text/css">
	.st0{fill:#FFFFFF;}
</style>
<path class="st0" d="M13.3,233.6L13.3,233.6c7.3,0,13.3,6.3,13.3,14v81.2c0,7.7-6,14-13.3,14l0,0c-7.3,0-13.3-6.3-13.3-14v-81.2
	C0,239.9,6,233.6,13.3,233.6z M57.4,189.9L57.4,189.9c7.3,0,13.3,5.9,13.3,13.2v169.9c0,7.3-6,13.2-13.3,13.2l0,0
	c-7.3,0-13.3-5.9-13.3-13.2V203.1C44.2,195.9,50.1,189.9,57.4,189.9z M101.6,172.6L101.6,172.6c7.3,0,13.3,6.3,13.3,14v202
	c0,7.7-6,14-13.3,14l0,0c-7.3,0-13.3-6.3-13.3-14v-202C88.2,178.9,94.2,172.6,101.6,172.6z M145.7,128.3L145.7,128.3
	c7.3,0,13.3,6.3,13.3,14.2v246c0,7.8-6,14.2-13.3,14.2l0,0c-7.3,0-13.3-6.3-13.3-14.2v-246C132.4,134.7,138.3,128.3,145.7,128.3z
	 M189.8,111L189.8,111c7.3,0,13.3,6.3,13.3,14v263.7c0,7.7-6,14-13.3,14l0,0c-7.3,0-13.3-6.3-13.3-14V125
	C176.5,117.2,182.5,111,189.8,111z M234,109.3L234,109.3c7.3,0,13.3,6.3,13.3,14v265.2c0,7.7-6,14-13.3,14l0,0
	c-7.3,0-13.3-6.3-13.3-14V123.4C220.6,115.7,226.5,109.3,234,109.3z M278,127.4L278,127.4c7.3,0,13.3,6.3,13.3,14v247.3
	c0,7.7-6,14-13.3,14l0,0c-7.3,0-13.3-6.3-13.3-14V141.4C264.7,133.6,270.7,127.4,278,127.4z M322.2,171.6L322.2,171.6
	c7.3,0,13.3,6.3,13.3,14v202.9c0,7.7-6,14-13.3,14l0,0c-7.3,0-13.3-6.3-13.3-14V185.6C308.9,177.9,314.9,171.6,322.2,171.6z
	 M366.3,173.8L366.3,173.8c7.3,0,13.3,6.3,13.3,14v200.7c0,7.7-6,14-13.3,14l0,0c-7.3,0-13.3-6.3-13.3-14V187.8
	C352.9,180.1,358.9,173.8,366.3,173.8z M410.4,196.1L410.4,196.1c7.3,0,13.3,6.3,13.3,14v178.5c0,7.7-6,14-13.3,14l0,0
	c-7.3,0-13.3-6.3-13.3-14V210.1C397.1,202.4,403.1,196.1,410.4,196.1z M454.5,229L454.5,229c7.3,0,13.3,6.3,13.3,14v144.3
	c0,7.7-6,14-13.3,14l0,0c-7.3,0-13.3-6.3-13.3-14V242.9C441.3,235.2,447.2,229,454.5,229z M498.7,262.7L498.7,262.7
	c7.3,0,13.3,6.3,13.3,14v76.5c0,7.7-6,14-13.3,14l0,0c-7.3,0-13.3-6.3-13.3-14v-76.5C485.3,269,491.3,262.7,498.7,262.7z"/>
</svg>
